X: 1
T: McMahon's
M: 4/4
L: 1/8
R: hornpipe
K: Gmaj
|: (3GFE | 
D>GB>G c>AB>G | D>GB>d g>fg>a | b>g (3ggg d>gd>B | c>BA>G F>D (3CB,A, |
D>GB>G c2 (3BAG | D>G (3Bcd g2 g>a | b>gf>g d>gd>B | c>A (3FGA G2 :|
|: g>a | 
b>g (3ggg a>ge>f | g>bg>d e>d (3Bcd | e>B (3B^AB e>Bg>B | e>dc>B A>GE>G |
D2 (3BAG c>AB>G | D2 (3Bcd g>fg>a | b>g (3ggg d>gd>B | (3cBA F>A G2 :|
